src/images/icons/telegram.svg

<svg fill="none" height="80" viewBox="0 0 78 80" width="78" xmlns="http://www.w3.org/2000/svg"><g fill="#fcfb63"><path d="m55.1666 24.9781-27.4699 16.8835c-1.0529.6485-1.5486 1.9173-1.2084 3.1051l2.9701 10.4144c.2108.7379 1.2843.6623 1.3866-.1002l.7722-5.7111c.1456-1.0753.6595-2.0659 1.4564-2.8061l22.6708-21.0295c.4239-.3925-.084-1.0586-.5778-.7561z"/><path clip-rule="evenodd" d="m78 0h-78v80h78zm-54.8669 44.6484-14.05571-5.2351c-1.42761-.5338-1.43994-2.5451-.01648-3.093l57.68479-22.2066c1.2228-.4719 2.4848.5972 2.2184 1.8788l-10.3519 49.6907c-.244 1.1732-1.6225 1.7053-2.5954.9995l-14.1313-10.2382c-.8583-.6217-2.0281-.5884-2.8492.0794l-7.8349 6.3737c-.9095.7421-2.2798.3288-2.6279-.7894z" fill-rule="evenodd"/></g></svg>

<svg width="78" height="80" viewBox="0 0 78 80" fill="none" xmlns="http://www.w3.org/2000/svg">
<path d="M55.1666 24.9781L27.6967 41.8616C26.6438 42.5101 26.1481 43.7789 26.4883 44.9667L29.4584 55.3811C29.6692 56.119 30.7427 56.0434 30.845 55.2809L31.6172 49.5698C31.7628 48.4945 32.2767 47.5039 33.0736 46.7637L55.7444 25.7342C56.1683 25.3417 55.6604 24.6756 55.1666 24.9781Z" fill="#FCFB63"/>
<path fill-rule="evenodd" clip-rule="evenodd" d="M78 0H0V80H78V0ZM23.1331 44.6484L9.07739 39.4133C7.64978 38.8795 7.63745 36.8682 9.06091 36.3203L66.7457 14.1137C67.9685 13.6418 69.2305 14.7109 68.9641 15.9925L58.6122 65.6832C58.3682 66.8564 56.9897 67.3885 56.0168 66.6827L41.8855 56.4445C41.0272 55.8228 39.8574 55.8561 39.0363 56.5239L31.2014 62.8976C30.2919 63.6397 28.9216 63.2264 28.5735 62.1082L23.1331 44.6484Z" fill="#FCFB63"/>
</svg>
